src/pos-icons/incognito-off.svg

<svg height="24" viewBox="0 0 24 24" width="24" xmlns="http://www.w3.org/2000/svg"><path d="m14.3 11.1c2.3.2 4.5.5 4.5.5 1 .3 1.9.6 2.6.8 1 .3 1.6.6 1.6.6h-6.8zm5.6 5.6c-.3-1.3-1.3-2.3-2.6-2.6zm2.2 4.8-1.3 1.3-2.4-2.4c-.6.4-1.2.6-2 .6-1.9 0-3.5-1.6-3.5-3.5v-.5c-.3-.1-.7-.1-1-.1-.4 0-.7.1-1 .1v.5c0 1.9-1.6 3.5-3.5 3.5s-3.4-1.6-3.4-3.5 1.6-3.5 3.5-3.5c1.5 0 2.7.9 3.2 2.2.3-.1.7-.2 1.2-.2s.9.1 1.2.2c.1-.2.2-.5.4-.7l-2.4-2.5h-10.1s.6-.2 1.6-.6c.7-.3 1.5-.5 2.5-.8.2 0 2.1-.3 4.1-.5l-2.1-2.1h-1.1l.3-.9-5.2-5.1 1.3-1.3zm-12.1-4c0-1.4-1.1-2.5-2.5-2.5s-2.5 1.1-2.5 2.5 1.1 2.5 2.5 2.5 2.5-1.1 2.5-2.5m7.8 2.1-3.4-3.4c-.3.4-.4.8-.4 1.3 0 1.4 1.1 2.5 2.5 2.5.5 0 .9-.1 1.3-.4m.2-10.6-1.4-4.8s-1.9-1.2-4.6-1.2-4.5 1.2-4.6 1.2l4.8 4.8z"/></svg>

<?xml version="1.0" encoding="UTF-8"?><!DOCTYPE svg PUBLIC "-//W3C//DTD SVG 1.1//EN" "http://www.w3.org/Graphics/SVG/1.1/DTD/svg11.dtd"><svg xmlns="http://www.w3.org/2000/svg" xmlns:xlink="http://www.w3.org/1999/xlink" version="1.1" id="mdi-incognito-off" width="24" height="24" viewBox="0 0 24 24"><path d="M14.3 11.1C16.6 11.3 18.8 11.6 18.8 11.6C19.8 11.9 20.7 12.2 21.4 12.4C22.4 12.7 23 13 23 13H16.2L14.3 11.1M19.9 16.7C19.6 15.4 18.6 14.4 17.3 14.1L19.9 16.7M22.1 21.5L20.8 22.8L18.4 20.4C17.8 20.8 17.2 21 16.4 21C14.5 21 12.9 19.4 12.9 17.5V17C12.6 16.9 12.2 16.9 11.9 16.9C11.5 16.9 11.2 17 10.9 17V17.5C10.9 19.4 9.3 21 7.4 21S4 19.4 4 17.5 5.6 14 7.5 14C9 14 10.2 14.9 10.7 16.2C11 16.1 11.4 16 11.9 16S12.8 16.1 13.1 16.2C13.2 16 13.3 15.7 13.5 15.5L11.1 13H1C1 13 1.6 12.8 2.6 12.4C3.3 12.1 4.1 11.9 5.1 11.6C5.3 11.6 7.2 11.3 9.2 11.1L7.1 9H6L6.3 8.1L1.1 3L2.4 1.7L22.1 21.5M10 17.5C10 16.1 8.9 15 7.5 15S5 16.1 5 17.5 6.1 20 7.5 20 10 18.9 10 17.5M17.8 19.6L14.4 16.2C14.1 16.6 14 17 14 17.5C14 18.9 15.1 20 16.5 20C17 20 17.4 19.9 17.8 19.6M18 9L16.6 4.2C16.6 4.2 14.7 3 12 3C9.3 3 7.5 4.2 7.4 4.2L12.2 9H18Z" /></svg>
